X:1
T: The Devil's Delight
T: Dismal Reel
C:Dan R. MacDonald
R:Reel
Q: 232
K:A
M:4/4
L:1/8
g|aA A1/2A1/2A A2 EC|A,2 EA, CE A,C|DC B,A, CE Ac|dF BA GB eg|
aA A1/2A1/2A A2 EC|A,2 EA, CE Ac|dc BA cd e=g|fd ec A1/2A1/2A Ag|
aA A1/2A1/2A A2 EC|A,2 EA, CE A,C|DC B,A, CE Ac|dF BA GB eg|
aA A1/2A1/2A A2 EC|A,2 EA, CE Ac|dc BA cd ea|fd ec A1/2A1/2A Ad|
c1/2d1/2e Af dA ce|fe ca eA cA|df Bb fB dB|GA Bc de fg|
aA A1/2A1/2A cA E2|DC B,A, CE Ac|dc BA cd ea|fd ec A1/2A1/2A Ad|
ce Af eA cA|fe ca eA cA|df Bb fB dB|GA Bc de fg|
aA A1/2A1/2A cA E2 DC|B,A, CE Ac dc|BA cd ea fd|ec A1/2A1/2A A||
